!!!OTL: MIT DER FREUDE ZIEHT DER SCHMERZ
!!!ARE: Europa, Mitteleuropa, Deutschland
!!!SCT: B0764
!!!YEM: Copyright 1995, estate of Helmut Schaffrath.
**kern
*ICvox
*Ivox
*M4/4
*k[b-e-a-]
*E-:
=1
{4b-
4b-
4.ee-
8b-
=2
4g
4a-
2b-}
=3
{4b-
4bn
4cc
4ff
=4
2ee-
2dd}
=5
{4.ee-
8cc
4bn
4g
=6
4.ee-
8cc
4cc
4bn}
=7
{4.cc
8a-
4g
4c
=8
4.cc
8a-
4a-
4g}
=9
{4.cc
8a-
4g
4c
=10
4.cc
8a-
4a-
4g}
=11
{4f
4g
4a-
4an
=12
4.b-
8cc
2b-}
=13
{4bn
4cc
4dd
4ee-
=14
2e-
4.g
8f
=15
2.e-
4r}
==
!!!AGN: Moral - Lied, religioes
!!!ONB: ESAC (Essen Associative Code) Database: BOEHME
!!!AMT: simple quadruple
!!!AIN: vox
!!!EED: Helmut Schaffrath
!!!EEV: 1.0
*-
